src/64x64/places/folder-gruvbox-mix-green-mail-cloud.svg

<?xml version="1.0" encoding="UTF-8"?>
<svg width="64" height="64" version="1" xmlns="http://www.w3.org/2000/svg">
 <rect x="4" y="22" width="56" height="36" rx="2.8" ry="2.8" opacity=".2"/>
 <path d="m4 46.2c0 1.551 1.2488 2.8 2.8 2.8h50.4c1.551 0 2.8-1.249 2.8-2.8v-30.4c0-1.551-1.249-2.8-2.8-2.8h-25.2c-4.2 0-5.6-6-9.8-6h-15.4c-1.5512 0-2.8 1.2488-2.8 2.8" fill="#72761e"/>
 <rect x="4" y="20" width="56" height="36" rx="2.8" ry="2.8" opacity=".2"/>
 <rect x="8" y="16" width="48" height="22" rx="2.8" ry="2.8" fill="#dee2b6"/>
 <rect x="4" y="21" width="56" height="36" rx="2.8" ry="2.8" fill="#b0b846"/>
 <path d="m6.8008 7c-1.5512 0-2.8008 1.2496-2.8008 2.8008v1.0002c0-1.5514 1.2496-2.801 2.8008-2.801h15.398c4.2 0 5.601 6 9.801 6h25.199c1.551 0 2.801 1.25 2.801 2.801v-1c0-1.551-1.25-2.801-2.801-2.801h-25.199c-4.2 0-5.601-6-9.801-6z" fill="#dee2b6" opacity=".1"/>
 <path d="m31.333 31c-2.857 3e-3 -5.394 1.99-6.309 4.942-1.847 0.968-3.022 3.005-3.024 5.24 0 3.213 2.388 5.818 5.333 5.818 1.308-3e-3 2.569-0.529 3.544-1.48 0.152 0.014 0.304 0.023 0.456 0.026 0.974-4e-3 1.936-0.24 2.817-0.693 0.774 0.453 1.638 0.691 2.516 0.693 2.946 0 5.335-2.606 5.334-5.82 0-3.213-2.388-5.818-5.333-5.818h-0.011c-1.257-1.828-3.228-2.904-5.323-2.908z" fill="#3b4439"/>
</svg>

<svg xmlns="http://www.w3.org/2000/svg" width="64" height="64" version="1">
 <rect style="opacity:0.2" width="56" height="36" x="4" y="22" rx="2.8" ry="2.8"/>
 <path style="fill:#72761e" d="M 4,46.2 C 4,47.751 5.2488,49 6.8,49 H 57.2 C 58.751,49 60,47.751 60,46.2 V 15.8 C 60,14.249 58.751,13 57.2,13 H 32 C 27.8,13 26.4,7 22.2,7 H 6.8 C 5.2488,7 4,8.2488 4,9.8"/>
 <rect style="opacity:0.2" width="56" height="36" x="4" y="20" rx="2.8" ry="2.8"/>
 <rect style="fill:#dee2b6" width="48" height="22" x="8" y="16" rx="2.8" ry="2.8"/>
 <rect style="fill:#b0b846" width="56" height="36" x="4" y="21" rx="2.8" ry="2.8"/>
 <path style="opacity:0.1;fill:#dee2b6" d="M 6.8008,7 C 5.2496,7 4,8.2496 4,9.8008 V 10.801 C 4,9.2496 5.2496,8 6.8008,8 H 22.199 C 26.399,8 27.8,14 32,14 H 57.199 C 58.75,14 60,15.25 60,16.801 V 15.801 C 60,14.25 58.75,13 57.199,13 H 32 C 27.8,13 26.399,7 22.199,7 Z"/>
 <path style="fill:#3b4439" d="M 31.333,31 C 28.476,31.003 25.939,32.99 25.024,35.942 23.177,36.91 22.002,38.947 22,41.182 22,44.395 24.388,47 27.333,47 28.641,46.997 29.902,46.471 30.877,45.52 31.029,45.534 31.181,45.543 31.333,45.546 32.307,45.542 33.269,45.306 34.15,44.853 34.924,45.306 35.788,45.544 36.666,45.546 39.612,45.546 42.001,42.94 42,39.726 42,36.513 39.612,33.908 36.667,33.908 36.663,33.908 36.66,33.908 36.656,33.908 35.399,32.08 33.428,31.004 31.333,31 Z"/>
</svg>
